svgs/sharp-thin/object-ungroup.svg

<svg xmlns="http://www.w3.org/2000/svg" viewBox="0 0 640 512"><!--! Font Awesome Pro 6.6.0 by @fontawesome - https://fontawesome.com License - https://fontawesome.com/license (Commercial License) Copyright 2024 Fonticons, Inc. --><path d="M16 16l0 64 64 0 0-64L16 16zM0 0L16 0 80 0 96 0l0 16 0 24 256 0 0-24 0-16 16 0 64 0 16 0 0 16 0 64 0 16-16 0-24 0 0 160 24 0 16 0 0 16 0 64 0 16-16 0-64 0-16 0 0-16 0-24L96 312l0 24 0 16-16 0-64 0L0 352l0-16 0-64 0-16 16 0 24 0L40 96 16 96 0 96 0 80 0 16 0 0zM392 96l-24 0-16 0 0-16 0-24L96 56l0 24 0 16L80 96 56 96l0 160 24 0 16 0 0 16 0 24 256 0 0-24 0-16 16 0 24 0 0-160zM80 272l-64 0 0 64 64 0 0-64zM368 16l0 64 64 0 0-64-64 0zm64 256l-64 0 0 64 64 0 0-64zm128-96l0 64 64 0 0-64-64 0zm-16-16l16 0 64 0 16 0 0 16 0 64 0 16-16 0-24 0 0 160 24 0 16 0 0 16 0 64 0 16-16 0-64 0-16 0 0-16 0-24-256 0 0 24 0 16-16 0-64 0-16 0 0-16 0-64 0-16 16 0 24 0 0-72 16 0 0 72 24 0 16 0 0 16 0 24 256 0 0-24 0-16 16 0 24 0 0-160-24 0-16 0 0-16 0-24-72 0 0-16 72 0 0-24 0-16zM272 432l-64 0 0 64 64 0 0-64zm352 0l-64 0 0 64 64 0 0-64z"/></svg>

<svg xmlns="http://www.w3.org/2000/svg" viewBox="0 0 640 512"><!--! Font Awesome Pro 6.5.2 by @fontawesome - https://fontawesome.com License - https://fontawesome.com/license (Commercial License) Copyright 2024 Fonticons, Inc. --><path d="M16 16V80H80V16H16zM0 0H16 80 96V16 40H352V16 0h16 64 16V16 80 96H432 408V256h24 16v16 64 16H432 368 352V336 312H96v24 16H80 16 0V336 272 256H16 40V96H16 0V80 16 0zM392 96H368 352V80 56H96V80 96H80 56V256H80 96v16 24H352V272 256h16 24V96zM80 272H16v64H80V272zM368 16V80h64V16H368zm64 256H368v64h64V272zm128-96v64h64V176H560zm-16-16h16 64 16v16 64 16H624 600V416h24 16v16 64 16H624 560 544V496 472H288v24 16H272 208 192V496 432 416h16 24V344h16v72h24 16v16 24H544V432 416h16 24V256H560 544V240 216H472V200h72V176 160zM272 432H208v64h64V432zm352 0H560v64h64V432z"/></svg>
